!!!COM:	Japart, Jean
!!!CDT:	~1450//-~1507//
!!!OTL:	Tan bien mi son pensada
!!!OTL2: Si je fet ung cop apres
!!!AGN:	Song; Chanson
!!!SCT:	Jap3020
!!!SCA:	Jap3020
!!!voices:	4
**kern	**kern	**kern	**kern
*staff4	*staff3	*staff2	*staff1
*Ivox	*Ivox	*Ivox	*Ivox
*I"Bassus	*I"Tenor	*I"Altus	*I"Discantus
*I'B	*I'T	*I'A	*I'D
*clefF4	*clefGv2	*clefGv2	*clefG2
*k[b-]	*k[b-]	*k[b-]	*k[b-]
*M2/1	*M2/1	*M2/1	*M2/1
*met(C|)	*met(C|)	*met(C|)	*met(C|)
=1-	=1-	=1-	=1-
0r	0r	0r	0r
=2	=2	=2	=2
1r	1r	1r	1r
1GG	1G	1d	1g
=3	=3	=3	=3
0D	0A	0d	0f
=4	=4	=4	=4
1GG	0B-	1.d	1.g
[1G	.	.	.
.	.	[2B-	2a
=5	=5	=5	=5
1G]	1G	4B-]	1b-
.	.	4c	.
.	.	4d	.
.	.	4e	.
[1F	[1c	[1f	2.a
.	.	.	4g
=6	=6	=6	=6
1F]	1c]	1f]	2.f
.	.	.	4e
1BB-	[1B-	1f	[1d
=7	=7	=7	=7
2.GG	2B-]	2.g	2d]
.	2A	.	2.g
4AA	.	4f	.
1BB-	1G	1d	.
.	.	.	4a
.	.	.	2b-
=8	=8	=8	=8
1C	0A	1c	2a
.	.	.	1g
1D	.	1A	.
.	.	.	2f#i
=9	=9	=9	=9
1GG	[0G	1B-	0g
[1C	.	[1e-	.
=10	=10	=10	=10
1C]	0G]	2e-]	1r
.	.	2d	.
2BB-	.	2e-i	1g
2AA	.	4d	.
.	.	4c	.
=11	=11	=11	=11
1GG	1r	1.B-	0dd
1G	1G	.	.
.	.	2A	.
=12	=12	=12	=12
1.B-	0d	0G	1.dd
4A	.	.	4cc
4G	.	.	4b-
=13	=13	=13	=13
1F	1.d	1A	1a
1G	.	2r	1b-
.	4c	2G	.
.	4B-	.	.
=14	=14	=14	=14
0F	1A	1A	1.cc
.	1B-	1F	.
.	.	.	4b-
.	.	.	4a
=15	=15	=15	=15
0E	1c	0G	0g
.	1c	.	.
=16	=16	=16	=16
1D	1d	1A	1f
1G	[1d	1r	[1b-
=17	=17	=17	=17
1D	2d]	0r	2b-]
.	2c	.	2a
1F	1A	.	[1a
=18	=18	=18	=18
0G	0B-	0d	1a]
.	.	.	1g
=19	=19	=19	=19
1D	0A	1d	[0a
[1F	.	[1c	.
=20	=20	=20	=20
2F]	1r	2c]	0a]
2E	.	2d	.
1D	1A	1f	.
=21	=21	=21	=21
1C	1c	1.e	0r
1AA	1c	.	.
.	.	2c	.
=22	=22	=22	=22
2.GG	1.B-	2.d	0r
4AA	.	4c	.
2BB-	.	2d	.
2C	4A	2e	.
.	4G	.	.
=23	=23	=23	=23
1.D	1.F	1.f	0r
2E	2G	4e	.
.	.	4d	.
=24	=24	=24	=24
1F	1A	1c	0r
[1D	[1B-	1f	.
=25	=25	=25	=25
2D]	2B-]	2d	0r
2C	2A	2e	.
1AA	[1A	2c	.
.	.	2e	.
=26	=26	=26	=26
0BB-	1A]	2d	0r
.	.	4e	.
.	.	4f	.
.	1G	4g	.
.	.	4f	.
.	.	4e	.
.	.	4d	.
=27	=27	=27	=27
0AA	0A	1c	0cc
.	.	1c	.
=28	=28	=28	=28
1BB-	1r	[0d	1.b-
1GG	1G	.	.
.	.	.	4a
.	.	.	4g
=29	=29	=29	=29
1D	0A	1d]	1f
1F	.	1c	1cc
=30	=30	=30	=30
[0G	0B-	1r	1b-
.	.	[1d	[1dd
=31	=31	=31	=31
1G]	1G	2d]	2dd]
.	.	2e	4cc
.	.	.	4b-
[1F	[1c	[1f	[1a
=32	=32	=32	=32
1F]	2c]	1f]	2a]
.	2B-	.	2g
1BB-	[1d	1f	[1b-
=33	=33	=33	=33
2.GG	2d]	2.g	2b-]
.	2c	.	2a
4AA	.	4f	.
2.BB-	1B-	2d	1g
.	.	[2d	.
4C	.	.	.
=34	=34	=34	=34
1D	1A	2d]	1f
.	.	4c	.
.	.	4B-	.
1E	1G	1c	[1g
=35	=35	=35	=35
0D	0A	0d	1g]
.	.	.	1f#i
=36	=36	=36	=36
0GG;	0G;	0d;	0g;
=37	=37	=37	=37
1r	1r	1r	1r
1GG	1G	1d	1g
=38	=38	=38	=38
1C	1G	1c	0g
1E	1G	1c	.
=39	=39	=39	=39
0D	1A	1d	2f
.	.	.	2.a
.	1B-	1d	.
.	.	.	4g
.	.	.	2f
=40	=40	=40	=40
2.C	0c	1.g	2.e
4D	.	.	4f
2E	.	.	2g
[2F	.	[2f	[2a
=41	=41	=41	=41
4F]	1c	2f]	4a]
4G	.	.	4b-
2.A	.	1e	2.cc
.	1c	.	.
4G	.	.	4b-
2F	.	2f	2a
=42	=42	=42	=42
0E	1G	4g	2g
.	.	4f	.
.	.	4e	2.b-
.	.	4d	.
.	1G	1c	.
.	.	.	4a
.	.	.	2g
=43	=43	=43	=43
0D	1A	0d	2.f
.	.	.	4e
.	1Bni	.	1d
=44	=44	=44	=44
0C	0c	0g	0e
=45	=45	=45	=45
1r	1r	1r	1r
[1F	1c	1f	[1a
=46	=46	=46	=46
1F]	1c	1f	0a]
1A	1c	1f	.
=47	=47	=47	=47
1G	1d	1g	1b-
1D	1f	[1a	2a
.	.	.	[2dd
=48	=48	=48	=48
0A	0e	2a]	2dd]
.	.	2g	4cc#i
.	.	.	4bni
.	.	1e	1cc#i
=49	=49	=49	=49
1.B-	1d	1r	1.dd
.	1d	1f	.
2A	.	.	2cc
=50	=50	=50	=50
1G	1d	1g	1b-
2A	1c	2e	1a
2F	.	2f	.
=51	=51	=51	=51
1G	1B-	0d	2g
.	.	.	1g
1D	1A	.	.
.	.	.	2f#i
=52	=52	=52	=52
[0GG	[0G	1r	0g
.	.	1d	.
=53	=53	=53	=53
0GG_	0G]	1d	1r
.	.	1d	1dd
=54	=54	=54	=54
0GG]	0r	0G	0dd
=55	=55	=55	=55
1r	0r	1B-	1g
1D	.	1A	1a
=56	=56	=56	=56
1D	0r	1A	1f
1D	.	1A	1f
=57	=57	=57	=57
1GG	0d	1G	1g
1D	.	2A	2f
.	.	[2F	[2b-
=58	=58	=58	=58
1F	1c	4F]	4b-]
.	.	4G	4a
.	.	2A	1a
1G	1B-	1B-	.
.	.	.	2g
=59	=59	=59	=59
1F	1A	2c	2a
.	.	2.A	2.cc
1A	1c	.	.
.	.	4B-	4b-
.	.	2c	[2a
=60	=60	=60	=60
1G	1B-	1d	4a]
.	.	.	4g
.	.	.	1g
1D	1A	1d	.
.	.	.	2f#i
=61	=61	=61	=61
0GGl	0Gl	0dl	0gl
==	==	==	==
*-	*-	*-	*-
!!!RDF**kern: l=long note in original notation
!!!RDF**kern: i=editorial accidental
!!!ENC:	Chris Gage 09-25-2013
!!!END:	2013/10/24/
!!!EED:	Jesse Rodin
!!!EEV:	2013/12/19/
!!!ONB:	Translated from MusicXML and edited on 2013/12/19/ by Craig Sapp
!!muse2ps: C^@{COM}^u^(@{OTL2})^i2I150v85,85,85,100Q16
